X: 22348
T: La Volta
R: waltz
M: 3/4
K: Gmajor
B2 A2 G2|:B6-|B2 AG AB|d6|c2 AB cA|B2 GA Bc|
AG FG AF|1 GF EF GA|B2 A2 G2:|2 G3 A DA|GF GA Bc||
|:.d2 .d2 e2|.c2 .c2 d2|B2 BA GF|GF GA Bc|
.dz DE FG|AG FG AF|1 G3 A DA|GF GA Bc:|2 G6||

